public/assets/ic_streaming_mic_off_24px.svg

<svg height="39.007" viewBox="0 0 37.901 39.007" width="37.901" xmlns="http://www.w3.org/2000/svg" xmlns:xlink="http://www.w3.org/1999/xlink"><filter id="a" filterUnits="userSpaceOnUse" height="39.007" width="37.901" x="0" y="0"><feOffset dy="3"/><feGaussianBlur result="blur" stdDeviation="3"/><feFlood flood-opacity=".647"/><feComposite in2="blur" operator="in"/><feComposite in="SourceGraphic"/></filter><g filter="url(#a)"><path d="m20.69 11.951h-1.88a5.654 5.654 0 0 1 -.475 2.267l1.36 1.36a7.281 7.281 0 0 0 .995-3.627zm-4.445.188c0-.066.022-.122.022-.188v-6.634a3.317 3.317 0 1 0 -6.634 0v.2zm-11.845-9.033-1.4 1.404 6.645 6.645v.8a3.3 3.3 0 0 0 3.306 3.317 3.119 3.119 0 0 0 .719-.088l1.83 1.83a6.079 6.079 0 0 1 -2.554.575 5.737 5.737 0 0 1 -5.86-5.639h-1.875a7.721 7.721 0 0 0 6.634 7.43v3.626h2.211v-3.626a7.754 7.754 0 0 0 2.808-1l4.636 4.627 1.4-1.4z" fill="#fff" transform="translate(6 4)"/></g></svg>

<svg xmlns="http://www.w3.org/2000/svg" xmlns:xlink="http://www.w3.org/1999/xlink" width="37.901" height="39.007" viewBox="0 0 37.901 39.007">
  <defs>
    <filter id="ic_mic_off_24px" x="0" y="0" width="37.901" height="39.007" filterUnits="userSpaceOnUse">
      <feOffset dy="3" input="SourceAlpha"/>
      <feGaussianBlur stdDeviation="3" result="blur"/>
      <feFlood flood-opacity="0.647"/>
      <feComposite operator="in" in2="blur"/>
      <feComposite in="SourceGraphic"/>
    </filter>
  </defs>
  <g transform="matrix(1, 0, 0, 1, 0, 0)" filter="url(#ic_mic_off_24px)">
    <path id="ic_mic_off_24px-2" data-name="ic_mic_off_24px" d="M20.69,11.951H18.81a5.654,5.654,0,0,1-.475,2.267l1.36,1.36A7.281,7.281,0,0,0,20.69,11.951Zm-4.445.188c0-.066.022-.122.022-.188V5.317a3.317,3.317,0,1,0-6.634,0v.2ZM4.4,3.106,3,4.51l6.645,6.645v.8a3.3,3.3,0,0,0,3.306,3.317,3.119,3.119,0,0,0,.719-.088L15.5,17.014a6.079,6.079,0,0,1-2.554.575,5.737,5.737,0,0,1-5.86-5.639H5.211a7.721,7.721,0,0,0,6.634,7.43v3.626h2.211V19.38a7.754,7.754,0,0,0,2.808-1L21.5,23.007l1.4-1.4Z" transform="translate(6 4)" fill="#fff"/>
  </g>
</svg>
